frontend/public/svg/e-commerce/conveyor-belt.svg

<svg width="157" height="102" viewBox="0 0 157 102" fill="none" xmlns="http://www.w3.org/2000/svg">
<path d="M126.632 67.184L32.6796 69.8868C33.0491 77.35 33.4561 84.6144 33.7383 91.8827C33.8356 93.8957 33.7034 95.9132 33.3445 97.896C33.1765 98.851 32.6769 99.7154 31.9337 100.337C31.1906 100.959 30.2516 101.299 29.2823 101.297C28.319 101.228 27.4065 100.838 26.691 100.189C25.9755 99.5408 25.4986 98.6705 25.3365 97.7182C25.1274 96.3897 25.0675 95.0423 25.158 93.7001C25.4048 86.9687 25.7086 80.2399 25.9725 73.5091C26.0204 72.2936 25.9797 71.0748 25.9797 69.6013C22.3836 69.2456 19.0599 69.0106 15.7664 68.5584C13.4273 68.2998 11.1202 67.8056 8.88014 67.0843C1.91967 64.6206 -1.16509 58.4463 1.2627 51.4635C3.91299 43.8375 8.94637 38.6466 17.2773 37.3096C18.7022 37.0806 20.1159 36.7767 21.2015 36.5699C21.6327 27.0963 22.0272 17.821 22.4946 8.54962C22.6173 6.11659 23.5329 5.12097 25.9791 4.77377C28.0852 4.47448 30.2275 4.39428 32.3573 4.30043C40.7663 3.92982 49.176 3.57971 57.5863 3.25023C58.8188 3.16871 60.0561 3.20078 61.2827 3.34605C64.6957 3.84552 66.5193 5.56059 66.8869 9.01818C67.5144 14.9324 67.9187 20.8703 68.4214 26.7976C68.657 29.5726 68.9051 32.3458 69.1611 35.2829H82.9114C82.9947 34.3299 83.0847 33.4706 83.1418 32.6089C83.6596 24.8805 84.121 17.1476 84.7032 9.42452C85.0655 4.61359 87.066 2.71024 91.9071 2.35385C94.9309 2.132 97.9592 1.92835 100.989 1.82859C110.193 1.53411 119.399 1.274 128.605 1.04822C133.018 0.947148 134.463 2.04855 135.403 6.33706C135.93 8.63409 136.229 10.9778 136.296 13.3337C136.413 20.1505 136.337 26.9696 136.337 33.7981C138.877 34.1394 141.219 34.3232 143.504 34.7826C152.353 36.5758 158.487 46.1072 156.232 54.276C155.263 57.7874 153.067 60.1172 149.931 61.7358C145.372 64.0933 140.395 64.9383 135.417 65.7863C134.771 65.8965 134.118 65.9763 133.379 66.0833C133.379 67.9027 133.384 69.556 133.379 71.2093C133.343 79.6229 133.379 88.0378 133.227 96.4488C133.165 99.7961 131.558 101.749 129.309 101.931C126.946 102.122 124.759 100.142 124.678 96.7455C124.566 92.0527 125.021 87.3408 125.348 82.6447C125.701 77.5266 126.191 72.4091 126.632 67.184ZM81.7746 43.1522L81.7582 42.5702C60.5582 43.1662 39.3584 43.8173 18.1587 44.2919C16.9873 44.2566 15.8264 44.5219 14.7866 45.0626C13.7468 45.6033 12.8629 46.4014 12.2189 47.3806C11.0469 49.0199 10.0925 50.8042 9.37962 52.689C7.93567 56.7091 9.10789 58.5632 13.1621 60.0741C16.5908 61.3513 20.0221 60.7612 23.4804 60.6903C49.5166 60.1567 75.5571 59.7826 101.589 59.0658C112.234 58.7725 122.874 57.9272 133.487 56.9728C137.34 56.6263 141.178 55.4691 144.877 54.2404C148.224 53.1293 148.72 51.1656 147.367 47.8504C145.939 44.3502 143.388 42.498 139.666 42.3273C135.183 42.1225 130.689 41.8318 126.211 41.9296C111.393 42.2518 96.5842 42.7315 81.7746 43.1522ZM126.811 8.80697H119.486C119.725 11.937 120.042 14.7251 120.128 17.5204C120.253 21.5661 118.568 23.5882 114.615 24.2111C112.401 24.5603 110.157 24.7295 107.92 24.9257C102.4 25.4101 101.226 24.1474 101.522 18.5114C101.685 15.4115 101.551 12.2966 101.551 8.97617H91.1156C91.5284 17.7941 91.9314 26.3841 92.3423 35.1547L126.81 33.8888L126.811 8.80697ZM51.613 9.4742C51.846 12.3837 52.354 15.3815 52.2588 18.3646C52.1394 22.1122 50.2491 23.774 46.5224 24.0569C45.0693 24.1672 43.6076 24.2105 42.1506 24.2059C37.4663 24.1908 36.4095 23.0213 36.7383 18.3646C36.9484 15.3946 37.1105 12.4199 37.2969 9.40272H29.4557C29.6618 18.3427 29.8626 27.0465 30.068 35.9687L59.4292 35.2553C59.7266 26.5057 60.0115 18.1432 60.3062 9.47098L51.613 9.4742ZM105.972 9.01496C106.391 12.2711 106.754 15.0886 107.153 18.18L113.528 17.6551C113.791 14.6051 114.028 11.8793 114.275 9.01371L105.972 9.01496ZM41.8946 17.8938L45.3614 17.555C45.6994 14.7282 46.0125 12.1074 46.3419 9.35081H41.1995C41.4305 12.1868 41.6452 14.8247 41.8946 17.8944V17.8938Z" fill="black"/>
<path d="M127.333 50.0828C127.311 51.3889 126.779 52.6347 125.851 53.5539C124.922 54.473 123.672 54.9928 122.365 55.0021C121.802 55.006 121.244 54.898 120.723 54.6845C120.202 54.471 119.729 54.1561 119.331 53.7583C118.932 53.3605 118.617 52.8878 118.403 52.3671C118.188 51.8465 118.08 51.2883 118.082 50.7253C118.164 48.4229 120.851 45.5587 122.996 45.4858C125.391 45.4025 127.337 47.4653 127.333 50.0828Z" fill="black"/>
<path d="M52.0214 56.7301C51.4026 56.7529 50.7856 56.6494 50.2082 56.4254C49.6309 56.2013 49.1054 55.8616 48.6639 55.4274C48.2224 54.9931 47.8741 54.4732 47.6406 53.8996C47.4071 53.3261 47.2931 52.711 47.3057 52.0918C47.2538 49.6102 48.5954 47.8637 50.6044 47.7968C54.1093 47.6793 56.2745 49.2847 56.3559 52.063C56.3976 53.256 55.9649 54.4171 55.1526 55.2918C54.3402 56.1666 53.2143 56.6836 52.0214 56.7301Z" fill="black"/>
<path d="M31.468 52.4455C31.4113 53.6261 30.9004 54.7392 30.042 55.5518C29.1837 56.3645 28.0444 56.814 26.8624 56.8062C26.2755 56.8028 25.6951 56.6839 25.1543 56.4559C24.6134 56.2279 24.123 55.8953 23.7108 55.4775C23.2986 55.0597 22.9729 54.5648 22.7522 54.0209C22.5316 53.4771 22.4203 52.8952 22.4249 52.3083C22.4801 49.7203 24.5634 48.2349 27.9606 48.3609C30.0261 48.4344 31.5324 50.189 31.468 52.4455Z" fill="black"/>
<path d="M100.451 46.4939C101.531 46.5054 102.565 46.9267 103.345 47.6729C104.126 48.4191 104.592 49.4342 104.652 50.5121C104.67 51.5933 104.263 52.6383 103.517 53.4217C102.771 54.205 101.748 54.6637 100.667 54.6988C100.103 54.7354 99.5377 54.6528 99.008 54.4561C98.4784 54.2595 97.996 53.9535 97.5923 53.5579C97.1887 53.1622 96.873 52.6858 96.6662 52.1599C96.4588 51.6341 96.365 51.0705 96.3906 50.506C96.365 49.9681 96.4529 49.4309 96.6485 48.9292C96.8441 48.4275 97.1434 47.9729 97.526 47.5944C97.9093 47.2159 98.3675 46.9223 98.8715 46.7327C99.3756 46.5431 99.9138 46.4618 100.451 46.4939Z" fill="black"/>
<path d="M76.3869 48.1452C79.0043 48.111 80.552 49.4812 80.5356 51.8204C80.5277 52.3503 80.4161 52.8737 80.2061 53.3603C79.9967 53.847 79.6928 54.2875 79.3122 54.6566C78.9321 55.0257 78.4826 55.316 77.9903 55.5114C77.4974 55.7066 76.971 55.803 76.4413 55.7946C75.3735 55.7814 74.3509 55.3601 73.5836 54.6172C72.8157 53.8743 72.3615 52.866 72.3143 51.7989C72.2132 49.4072 73.583 48.1793 76.3869 48.1452Z" fill="black"/>
</svg>

<svg xmlns="http://www.w3.org/2000/svg" width="157" height="102" fill="none" viewBox="0 0 157 102"><path fill="#000" d="M126.632 67.184 32.68 69.887c.37 7.463.776 14.727 1.058 21.996a26.6 26.6 0 0 1-.394 6.013 4.11 4.11 0 0 1-4.062 3.401 4.316 4.316 0 0 1-3.945-3.579 18 18 0 0 1-.179-4.018c.247-6.731.55-13.46.814-20.19.048-1.216.008-2.435.008-3.909-3.596-.355-6.92-.59-10.214-1.043a35 35 0 0 1-6.886-1.474c-6.96-2.463-10.045-8.638-7.617-15.62 2.65-7.626 7.683-12.817 16.014-14.154 1.425-.23 2.839-.533 3.924-.74.432-9.474.826-18.749 1.294-28.02.122-2.433 1.038-3.429 3.484-3.776 2.106-.3 4.249-.38 6.378-.474q12.614-.555 25.23-1.05c1.232-.081 2.47-.05 3.696.096 3.413.5 5.236 2.215 5.604 5.672.627 5.914 1.032 11.852 1.534 17.78.236 2.775.484 5.548.74 8.485h13.75c.084-.953.174-1.812.23-2.674.519-7.728.98-15.461 1.562-23.184.362-4.811 2.363-6.715 7.204-7.071 3.024-.222 6.052-.426 9.082-.525q13.807-.443 27.616-.78c4.413-.102 5.858 1 6.798 5.288.527 2.297.826 4.64.893 6.997.117 6.817.041 13.636.041 20.464 2.54.341 4.882.525 7.167.985 8.849 1.793 14.983 11.324 12.728 19.493-.969 3.511-3.165 5.841-6.301 7.46-4.559 2.357-9.536 3.202-14.514 4.05-.646.11-1.299.19-2.038.297 0 1.82.005 3.473 0 5.126-.036 8.414 0 16.829-.152 25.24-.062 3.347-1.669 5.3-3.918 5.482-2.363.191-4.55-1.789-4.631-5.185-.112-4.693.343-9.405.67-14.101.353-5.118.843-10.236 1.284-15.461M81.775 43.152l-.017-.582c-21.2.596-42.4 1.247-63.6 1.722a6.86 6.86 0 0 0-5.94 3.089 23.3 23.3 0 0 0-2.838 5.308c-1.444 4.02-.272 5.874 3.782 7.385 3.429 1.277 6.86.687 10.318.616 26.037-.533 52.077-.907 78.109-1.624 10.645-.294 21.285-1.139 31.898-2.093 3.853-.347 7.691-1.504 11.39-2.733 3.347-1.11 3.843-3.074 2.49-6.39-1.428-3.5-3.979-5.352-7.701-5.523-4.483-.204-8.977-.495-13.455-.397-14.818.322-29.627.801-44.436 1.222M126.81 8.807h-7.325c.239 3.13.556 5.918.642 8.713.125 4.046-1.56 6.068-5.513 6.691-2.214.35-4.458.519-6.695.715-5.52.484-6.694-.779-6.398-6.415.163-3.1.029-6.214.029-9.535H91.116l1.226 26.179 34.468-1.266zm-75.198.667c.233 2.91.741 5.908.646 8.89-.12 3.748-2.01 5.41-5.737 5.693-1.453.11-2.914.154-4.371.149-4.685-.015-5.742-1.185-5.413-5.841.21-2.97.373-5.945.559-8.962h-7.841l.612 26.566 29.361-.714.877-25.784zm54.359-.459 1.181 9.165 6.375-.525.747-8.641zm-64.077 8.879 3.466-.339c.338-2.827.652-5.448.98-8.204H41.2z"/><path fill="#000" d="M127.333 50.083a5.005 5.005 0 0 1-4.968 4.92 4.25 4.25 0 0 1-4.283-4.278c.082-2.302 2.769-5.166 4.914-5.24 2.395-.082 4.341 1.98 4.337 4.598M52.021 56.73a4.55 4.55 0 0 1-4.715-4.638c-.052-2.482 1.29-4.228 3.298-4.295 3.505-.118 5.67 1.488 5.752 4.266a4.513 4.513 0 0 1-4.335 4.667m-20.553-4.284a4.58 4.58 0 0 1-4.606 4.36 4.463 4.463 0 0 1-4.437-4.498c.055-2.588 2.138-4.073 5.536-3.947 2.065.073 3.571 1.828 3.507 4.085m68.983-5.952a4.25 4.25 0 0 1 4.201 4.018 4.12 4.12 0 0 1-3.985 4.187 4.02 4.02 0 0 1-4.276-4.193 3.84 3.84 0 0 1 4.06-4.012m-24.064 1.651c2.617-.034 4.165 1.336 4.149 3.675a4.04 4.04 0 0 1-2.546 3.691 4 4 0 0 1-1.549.284 4.183 4.183 0 0 1-4.127-3.996c-.1-2.392 1.269-3.62 4.073-3.654"/></svg>
